X:1
T:She's Off and Away with my Fiddle
C:T. S. Macdonald
M:C|
L:1/8
K:D
C:T S Macdonald
d2 ef gd d/d/d | c/B/A eA aAeA | d2 ef gd d/d/d |1 c/B/A eA B2 A/B/c :|2 c/B/A eA Bd d2 :|]
K:G
|: gdBG FA A/A/A | gdBd gbaf | egdg Bgdb |1 afed B2 ef :|2 a/g/f ed BG G2 |]

